svgs/sharp-light/message-medical.svg

<svg xmlns="http://www.w3.org/2000/svg" viewBox="0 0 512 512"><!--! Font Awesome Pro 6.6.0 by @fontawesome - https://fontawesome.com License - https://fontawesome.com/license (Commercial License) Copyright 2024 Fonticons, Inc. --><path d="M160 448l0-32-32 0-96 0L0 416l0-32L0 32 0 0 32 0 480 0l32 0 0 32 0 352 0 32-32 0-176 0L192 490.7 160 512l0-38.5 0-25.5zm0-64l32 0 0 32 0 36.2 94.2-62.8 8.1-5.4 9.7 0 176 0 0-352L32 32l0 352 128 0zM224 96l64 0 16 0 0 16 0 48 48 0 16 0 0 16 0 64 0 16-16 0-48 0 0 48 0 16-16 0-64 0-16 0 0-16 0-48-48 0-16 0 0-16 0-64 0-16 16 0 48 0 0-48 0-16 16 0zm16 80l0 16-16 0-48 0 0 32 48 0 16 0 0 16 0 48 32 0 0-48 0-16 16 0 48 0 0-32-48 0-16 0 0-16 0-48-32 0 0 48z"/></svg>

<svg xmlns="http://www.w3.org/2000/svg" viewBox="0 0 512 512"><!--! Font Awesome Pro 6.4.0 by @fontawesome - https://fontawesome.com License - https://fontawesome.com/license (Commercial License) Copyright 2023 Fonticons, Inc. --><path d="M160 448V416H128 32 0V384 32 0H32 480h32V32 384v32H480 304L192 490.7 160 512V473.5 448zm0-64h32v32 36.2l94.2-62.8 8.1-5.4H304 480V32H32V384H160zM224 96h64 16v16 48h48 16v16 64 16H352 304v48 16H288 224 208V304 256H160 144V240 176 160h16 48V112 96h16zm16 80v16H224 176v32h48 16v16 48h32V240 224h16 48V192H288 272V176 128H240v48z"/></svg>
